X: 28
T: No_35_Hand-Game_Song_(a).krn
N: Derived from No_35_Hand-Game_Song_(a).krn
%%abc-version 2.0
%%abcx-abcm2ps-target-version 5.9.1 (29 Sep 2008)
%%abc-creator hum2abc beta
%%abcx-conversion-date 2019/03/15 08:35:00
%%humdrum-veritas 1927763765
%%humdrum-veritas-data 2140447505
%%linebreak <none>
%%barnumbers 0
L: 1/8
M: 2/4
K: F clef=bass
[K:clef=bass][M:2/4]z2F,3/F,/ ]|:  
G,2D,3/D,/ | 
D, z (A,3/G,/) | 
F,2C,3/C,/ | 
F, z F,3/F,/ | 
G,2D,3/D,/ | 
D, z G,3/F,/ | 
F,3/C,/ C,3/C,/ [I:setbarnb 9]| 
F, z F,3/F,/ :|]  
F,2C,3/C,/ | 
F,2z2 |]  



